public/images/color-icons/virtual.svg

<svg width="64" height="64" viewBox="0 0 64 64" fill="none" xmlns="http://www.w3.org/2000/svg">
<g clip-path="url(#clip0_638_18382)">
<path d="M57.1254 1.875H6.87462C4.11337 1.875 1.875 4.11338 1.875 6.87463V57.1254C1.875 59.8866 4.11337 62.125 6.87462 62.125H57.1254C59.8866 62.125 62.125 59.8866 62.125 57.1253V6.87463C62.125 4.11338 59.8866 1.875 57.1254 1.875Z" stroke="#98A2B3" stroke-width="3" stroke-miterlimit="10" stroke-linecap="round" stroke-linejoin="round"/>
<path d="M1.875 47H62" stroke="#98A2B3" stroke-width="3" stroke-miterlimit="10" stroke-linecap="round" stroke-linejoin="round"/>
<path d="M56.375 54.5C56.375 53.4645 55.5355 52.625 54.5 52.625C53.4645 52.625 52.625 53.4645 52.625 54.5C52.625 55.5355 53.4645 56.375 54.5 56.375C55.5355 56.375 56.375 55.5355 56.375 54.5Z" fill="#98A2B3"/>
<path d="M48.875 54.5C48.875 53.4645 48.0355 52.625 47 52.625C45.9645 52.625 45.125 53.4645 45.125 54.5C45.125 55.5355 45.9645 56.375 47 56.375C48.0355 56.375 48.875 55.5355 48.875 54.5Z" fill="#98A2B3"/>
<path d="M41.375 54.5C41.375 53.4645 40.5355 52.625 39.5 52.625C38.4645 52.625 37.625 53.4645 37.625 54.5C37.625 55.5355 38.4645 56.375 39.5 56.375C40.5355 56.375 41.375 55.5355 41.375 54.5Z" fill="#98A2B3"/>
<path d="M46.8653 28.7524L43.1153 35.2476L41.375 34.2428C38.875 32.7994 35.75 34.6036 35.75 37.4904V39.5H28.25V37.4904C28.25 34.6036 25.125 32.7994 22.625 34.2428L20.8846 35.2476L17.1346 28.7524L18.875 27.7476C21.375 26.3043 21.375 22.6958 18.875 21.2524L17.1346 20.2476L20.8846 13.7524L22.625 14.7573C25.125 16.2005 28.25 14.3964 28.25 11.5096V9.5H35.75V11.5096C35.75 14.3964 38.875 16.2005 41.375 14.7573L43.1153 13.7524L46.8653 20.2476L45.125 21.2524C42.625 22.6958 42.625 26.3043 45.125 27.7476L46.8653 28.7524Z" fill="#009640" stroke="#009640" stroke-width="3" stroke-miterlimit="10" stroke-linecap="round" stroke-linejoin="round"/>
<path d="M35.75 24.5C35.75 22.429 34.071 20.75 32 20.75C29.929 20.75 28.25 22.429 28.25 24.5C28.25 26.571 29.929 28.25 32 28.25C34.071 28.25 35.75 26.571 35.75 24.5Z" fill="white"/>
</g>
<defs>
<clipPath id="clip0_638_18382">
<rect width="64" height="64" fill="white"/>
</clipPath>
</defs>
</svg>

<svg  width="currentWidth" height="currentHeight" viewBox="0 0 64 64" fill="none" xmlns="http://www.w3.org/2000/svg">
  <g clip-path="url(#a)">
    <path d="M57.125 1.875H6.875a5 5 0 0 0-5 5v50.25a5 5 0 0 0 5 5h50.25a5 5 0 0 0 5-5V6.875a5 5 0 0 0-5-5ZM1.875 47H62" stroke="#98A2B3" stroke-width="3" stroke-miterlimit="10" stroke-linecap="round" stroke-linejoin="round"/>
    <path d="M56.375 54.5a1.875 1.875 0 1 0-3.75 0 1.875 1.875 0 0 0 3.75 0Zm-7.5 0a1.875 1.875 0 1 0-3.75 0 1.875 1.875 0 0 0 3.75 0Zm-7.5 0a1.875 1.875 0 1 0-3.75 0 1.875 1.875 0 0 0 3.75 0Z" fill="#98A2B3"/>
    <path d="m46.865 28.752-3.75 6.496-1.74-1.005c-2.5-1.444-5.625.36-5.625 3.247v2.01h-7.5v-2.01c0-2.886-3.125-4.69-5.625-3.247l-1.74 1.005-3.75-6.496 1.74-1.004c2.5-1.444 2.5-5.052 0-6.496l-1.74-1.004 3.75-6.496 1.74 1.005c2.5 1.444 5.625-.36 5.625-3.247V9.5h7.5v2.01c0 2.886 3.125 4.69 5.625 3.247l1.74-1.005 3.75 6.496-1.74 1.004c-2.5 1.444-2.5 5.052 0 6.496l1.74 1.004Z" fill="#009640" stroke="#009640" stroke-width="3" stroke-miterlimit="10" stroke-linecap="round" stroke-linejoin="round"/>
    <path d="M35.75 24.5a3.75 3.75 0 1 0-7.5 0 3.75 3.75 0 0 0 7.5 0Z" fill="#fff"/>
  </g>
  <defs>
    <clipPath id="a">
      <path fill="#fff" d="M0 0h64v64H0z"/>
    </clipPath>
  </defs>
</svg>
